src/topics/icons/flattr.svg

<svg height="257" preserveAspectRatio="xMidYMid" viewBox="0 0 256 257" width="256" xmlns="http://www.w3.org/2000/svg" xmlns:xlink="http://www.w3.org/1999/xlink"><linearGradient id="a" x1="50.000371%" x2="50.000371%" y1="0%" y2="99.997032%"><stop offset="0" stop-color="#ea5f29"/><stop offset="1" stop-color="#fabd1f"/></linearGradient><linearGradient id="b" x1="49.996661%" x2="49.996661%" y1="99.998516%" y2=".000742%"><stop offset="0" stop-color="#abd33c"/><stop offset="1" stop-color="#6cb02f"/></linearGradient><path d="m91.7941754 237.859248c-60.775426 0-91.7941754-35.060913-91.7941754-100.522777v-45.727635-91.608836l59.5345348 59.691632v69.763503c0 27.119562 7.1752812 44.377305 31.2464521 48.25178 8.4091118 1.646873 25.9104431 1.069673 37.0378661 1.069673v-41.422466c0-.377739.051189-1.052022.148271-1.397988.465996-1.67688 1.980484-2.905416 3.773863-2.908946 1.014954-.001765 1.964597.526011 2.944248 1.493306l103.172247 103.302867-69.253378.015887z" fill="url(#a)" transform="matrix(1 0 0 -1 0 237.859248)"/><path d="m196.200253 196.452668v-69.761738c0-27.119562-7.177046-44.3790699-31.246452-48.2535452-8.409112-1.6451075-25.910443-1.0679078-37.037866-1.0679078v41.420701c0 .375974-.051189 1.052021-.148271 1.397988-.465996 1.678645-1.978719 2.905415-3.773863 2.908946-1.014954.00353-1.964597-.526011-2.944248-1.491541l-103.1722475-103.3028675 69.2533782-.0158863h76.8099293c60.775426 0 91.794175 35.0609128 91.794175 100.5210118v45.7294 91.607071z" fill="url(#b)" transform="matrix(1 0 0 -1 0 274.431116)"/></svg>

<?xml version="1.0" encoding="UTF-8" standalone="no"?>
<svg width="256px" height="257px" viewBox="0 0 256 257" version="1.1" xmlns="http://www.w3.org/2000/svg" xmlns:xlink="http://www.w3.org/1999/xlink" preserveAspectRatio="xMidYMid">
    <defs>
        <linearGradient x1="50.000371%" y1="2.10915516e-14%" x2="50.000371%" y2="99.9970316%" id="linearGradient-1">
            <stop stop-color="#EA5F29" offset="0%"></stop>
            <stop stop-color="#FABD1F" offset="100%"></stop>
        </linearGradient>
        <linearGradient x1="49.9966606%" y1="99.9985158%" x2="49.9966606%" y2="0.000742098506%" id="linearGradient-2">
            <stop stop-color="#ABD33C" offset="0%"></stop>
            <stop stop-color="#6CB02F" offset="100%"></stop>
        </linearGradient>
    </defs>
	<g>
		<path d="M91.7941754,237.859248 C31.0187494,237.859248 -2.84217094e-14,202.798335 -2.84217094e-14,137.336471 L-2.84217094e-14,137.336471 L-2.84217094e-14,91.608836 L-2.84217094e-14,-5.68434189e-14 L59.5345348,59.691632 L59.5345348,129.455135 C59.5345348,156.574697 66.709816,173.83244 90.7809869,177.706915 L90.7809869,177.706915 C99.1900987,179.353788 116.69143,178.776588 127.818853,178.776588 L127.818853,178.776588 L127.818853,137.354122 C127.818853,136.976383 127.870042,136.3021 127.967124,135.956134 L127.967124,135.956134 C128.43312,134.279254 129.947608,133.050718 131.740987,133.047188 L131.740987,133.047188 C132.755941,133.045423 133.705584,133.573199 134.685235,134.540494 L134.685235,134.540494 L237.857482,237.843361 L168.604104,237.859248 L91.7941754,237.859248 L91.7941754,237.859248 Z" fill="url(#linearGradient-1)" transform="translate(118.928741, 118.929624) scale(1, -1) translate(-118.928741, -118.929624) "></path>
		<path d="M196.200253,196.452668 L196.200253,126.69093 C196.200253,99.571368 189.023207,82.3118601 164.953801,78.4373848 L164.953801,78.4373848 C156.544689,76.7922773 139.043358,77.369477 127.915935,77.369477 L127.915935,77.369477 L127.915935,118.790178 C127.915935,119.166152 127.864746,119.842199 127.767664,120.188166 L127.767664,120.188166 C127.301668,121.866811 125.788945,123.093581 123.993801,123.097112 L123.993801,123.097112 C122.978847,123.100642 122.029204,122.571101 121.049553,121.605571 L121.049553,121.605571 L17.8773055,18.3027035 L87.1306837,18.2868172 L163.940613,18.2868172 C224.716039,18.2868172 255.734788,53.34773 255.734788,118.807829 L255.734788,118.807829 L255.734788,164.537229 L255.734788,256.1443 L196.200253,196.452668 L196.200253,196.452668 Z" fill="url(#linearGradient-2)" transform="translate(136.806047, 137.215558) scale(1, -1) translate(-136.806047, -137.215558) "></path>
	</g>
</svg>
